X:1
T:Lenz, komm herbei!
T:Max Bruch
T:Lenz, komm herbei!
T:Op. 71, № 6
T:Creative Commons Attribution Non Commercial 3.0
T:Creative Commons Attribution Non Commercial 3.0
T:Creative Commons Attribution Non Commercial 3.0
T:Creative Commons Attribution Non Commercial 3.0
T:Creative Commons Attribution Non Commercial 3.0
T:Creative Commons Attribution Non Commercial 3.0
T:Creative Commons Attribution Non Commercial 3.0
C:Max Bruch
Z:Creative Commons Attribution Non Commercial 3.0
%%score [ ( 1 2 ) 3 4 5 ]
L:1/8
Q:1/4=66
M:3/8
K:Bb
V:1 treble nm="Sopran" snm="S."
V:2 treble 
V:3 treble nm="Alt" snm="A."
V:4 treble-8 nm="Tenor" snm="T."
V:5 bass nm="Bass" snm="B."
V:1
"^Andante sostenuto" z3 | z3 | !fermata!z3 |!p! B3 | B2 B | !fermata!d3 || %6
w: |||1.~Lenz,|komm her-|bei!|
w: |||2.~Gott|geb' dir|zwar,|
[Q:1/4=88]"^Allegro"!f! BdF | !>!G2 A | B/A/ B/c/ d/e/ | (fd)g | f3 | d z z | z3 |!f! cfA | d3 | %15
w: Nun will ich|frei ein|fröh- * li- * ches _|Le- ben an-|fan-|gen,||nun will ich|frei,|
w: dass du viel|Jahr magst|Früch- * te _ und _|Blu- * men|brin-|gen,||dass du viel|Jahr,|
 cfA | !>!d2 c | B/A/ B/c/ d/=e/ | (f/g/a/g/f/=e/ | (d)d)g | !>!c3 | F z z | z z!ff! d | %23
w: nun will ich|frei ein|fröh- * li- * ches _|Le- * * * * *|* ben an-|fan-|gen,|ein|
w: dass du viel|Jahr magst|Früch- * te _ und _|Blu- * * * * *|* * men|brin-|gen,|viel|
 f/=e/ f/e/ f/e/ | (f>d)=e | f3 | F z!p! c | c2 B | c2 B | c2 d | e2!<(! e!<)! | d2 A | Ad^f | %33
w: fröh- * li- * ches _|Le- ben an-|fan-|gen, weil|Som- mer-|zeit nun|ist nicht|weit, der|Win- ter|ist _ ver-|
w: Früch- * te _ und _|Blu- * men,|brin-|gen. Du|ed- ler|Lenz mit|dei- nem|Glanz, wie|Sonn'- schein|her _ tust|
!f! =e3 | d z |!p! d | c2 G |!<(! ABc | (d!<)!fe | g)!>(!fd!>)! |!p! B2 d | !>!B>cd | c3 | %43
w: gan-|gen,|1.+2.~all'|Feld tun|jetz- * und|grü- * *|* nen, der|Lenz bringt|schö- * ne|Blu-|
w: drin-|gen,|||||||||
 B z!<(! d!<)! | c2 G | ABc |!f! (dfe | _agf- |!>(! fe!>)!d) | c2!p! c | f2 F | B>cd | c3 | B z | %54
w: men! All'|Feld tun|jetz- * und|grü- * *|||nen, der|Lenz bringt|schö- * ne|Blu-|men!|
w: |||||||||||
 z | z3 | z z!p! F |[Q:1/4=80]"^poco rit." d>BF | GBd | f3- | f3 | !fermata!d3 |] %62
w: ||Der|Lenz _ bringt|schö- * ne|Blu-||men!|
w: ||||||||
V:2
 x3 | x3 | x3 | x3 | x3 | x3 || x3 | x3 | x3 | x3 | x3 | x3 | x3 | x3 | x3 | x3 | x3 | x3 | x3 | %19
 d2 x | x3 | x3 | x3 | x3 | x3 | x3 | x3 | x3 | x3 | x3 | x3 | x3 | x3 | x3 | x2 | x | x3 | x3 | %38
 x3 | x3 | x3 | x3 | x3 | x3 | x3 | x3 | x3 | x3 | x3 | x3 | x3 | x3 | x3 | x2 | x | x3 | x3 | x3 | %58
 G2 B | d3- | d3 | B3 |] %62
V:3
 z3 | z3 | !fermata!z3 |!p! F3 | (EF)G | !fermata!F3 ||!f! FBD | !>!E2 F | F>AB | (BB)B | (B A2) | %11
w: |||1.~Lenz,|komm _ her-|bei!|Nun will ich|frei ein|fröh- li- ches|Le- ben an-|fan- *|
w: |||2.~Gott|geb' _ dir|zwar,|dass du viel|Jahr magst|Früch- te und|Blu- * men|brin- *|
 B z z | !>!G3 | !>!A3 | FBD | F3 | FBD | D2 d/B/ | c/B/ A/B/ c/^c/ | (dB)B | B>A B/G/ | %21
w: gen,|nun,|nun,|nun will ich|frei,|nun will ich|frei ein _|fröh- * li- * ches _|Le- ben an-|fan- gen, ein _|
w: gen,|dass|du,|dass du viel|Jahr,|dass du viel|Jahr magst _|Früch- * te _ und _|Blu- * men|brin- gen, viel _|
!ff! !>!FAC | !>!DFB | !>!AcF | (!>!FB)G | A>BA/B/ | A z!p! A | A2 G | A2 B | G2 B | c2!<(! c!<)! | %31
w: fröh- li- ches|Le- ben, ein|fröh- li- ches|Le- ben an-|fan- * * *|gen, weil|Som- mer-|zeit nun|ist nicht|weit, der|
w: Früch- te und|Blu- men, magst|Früch- te und|Blu- * men|brin- * * *|gen. Du|ed- ler|Lenz mit|dei- nem|Glanz, wie|
 A2 ^F | ^FAd |!f! d=B^c | d z |!p! ^F | G2 G |!<(! GFA | (B3!<)! | A)!>(!BA!>)! |!p! G2 A | G2 B | %42
w: Win- ter|ist _ ver-|gan- * *|gen,|1.+2.~all'|Feld tun|jetz- * und|grü-|* nen, der|Lenz bringt|schö- ne|
w: Sonn'- schein|her _ tust|drin- * *|gen,||||||||
!<(! B!<)!G!>(!A!>)! | B z!<(! B!<)! | G2 G | GF G/A/ |!f! (B3 | de=B |!>(! c2!>)! G) | G2!p! C | %50
w: Blu- * *|men! All'|Feld tun|jetz- * und _|grü-|||nen, der|
w: ||||||||
 C2 F | F2 B |!<(! (B2!<)!!>(! A)!>)! | B z |!p! F | F2 F | F2 F |!pp! (F3 | G3 | F3-) | F3 | %61
w: Lenz bringt|schö- ne|Blu- *|men!|Der|Lenz bringt|schö- ne|Blu-||||
w: |||||||||||
 !fermata!F3 |] %62
w: men!|
w: |
V:4
 z3 | z3 | !fermata!z3 |!p! d3 | (gf)e | !fermata!B3 ||!f! dfB | !>!B2 f | f>f f/e/ | (df)e | %10
w: |||1.~Lenz,|komm _ her-|bei!|Nun will ich|frei ein|fröh- li- ches _|Le- ben an-|
w: |||2.~Gott|geb' _ dir|zwar,|dass du viel|Jahr magst|Früch- te und _|Blu- * men|
 (c2 f) | f z z |!f! cgB | Ac f/=e/ | (df)f | A/B/ c/B/ c/A/ | B/d/f^f | g3 | c2 f | !>!f>dd | %20
w: fan- *|gen,|nun will ich|frei _ ein _|fröh- li- ches,|fröh- * li- * ches _|Le- * ben an-|fan-|gen, ein|fröh- li- ches|
w: brin- *|gen,|dass du viel|Jahr _ magst _|Früch- * te|brin- * gen, _ magst _|Früch- * te und|Blu-|men, und|Blu- men, magst|
 =e/f/g c/B/ |!ff! AcA | !>!Bdf | !>!f/c/AA | (!>!df)d | c>dc/d/ | c z!p! F | f2 d | f>ed | g2 f | %30
w: Le- * ben, ein _|_ _ _||||fan- * * *|gen, weil|Som- mer-|zeit _ nun|ist nicht|
w: brin- * gen viel _|_ _ _||||brin- * * *|gen. Du|ed- ler|Lenz _ mit|dei- nem|
 g2!<(! A!<)! | A2 d | d^fa |!f! g3 | ^f z |!p! A | G2 c |!<(! cde | (f!<)!dc | e)!>(!df!>)! | %40
w: weit, der|Win- ter|ist _ ver-|gan-|gen,|1.+2.~all'|Feld tun|jetz- * und|grü- * *|* nen, der|
w: Glanz, wie|Sonn'- schein|her _ tust|drin-|gen,||||||
!p! d2 f | d2 f |!<(! (f2!<)!!>(! e)!>)! | d z!<(! g!<)! | g2 e | efe |!f! (d2 e | f g2- | %48
w: Lenz bringt|schö- ne|Blu- *|men! All'|Feld tun|jetz- * und|grü- *||
w: ||||||||
!>(! g2!>)! f) | ec!p!B | A2 A | f>ed | e3 | d z |!p! c | d2 c | d2 c |!pp! d3- | d3- | d3- | d3 | %61
w: |nen, _ der|Lenz bringt|schö- * ne|Blu-|men!|Der|Lenz bringt|schö- ne|Blu-||||
w: |||||||||||||
 !fermata!d3 |] %62
w: men!|
w: |
V:5
!pp! F,3 | F,2 F, | !fermata!B,3- | (B,3 | B,) z z | !fermata!z3 ||!f! D,B,,B, | !>!E,2 E | %8
w: 1.~Lenz,|komm her-|bei!|_|||Nun will ich|frei ein|
w: 2.~Gott|geb' dir|zwar,|_|||dass du viel|Jahr magst|
 D>C B,/C/ | (DB,)E, | F,F, z |!f! B,DF, | !>!=E,3 | F,A,F, | B,2 B, | F,/G,/ A,/G,/ A,/F,/ | %16
w: fröh- li- ches _|Le- ben an-|fan- gen,|nun will ich|frei,|nun will ich|frei ein|fröh- * li- * ches _|
w: Früch- te und _|Blu- * men|brin- gen,|dass du viel|Jahr,|dass du viel|Jahr magst|Früch- * te _ und _|
 B,B,,D, | (G,>A,B,/G,/ | A,/(G,/) F,/G,/)A, | B,/(C/ B,/)A,/ B,/G,/ | CC,C, | %21
w: Le- ben, ein|fröh- * * *|* * li- * ches|Le- * ben _ an- *|fan- gen, ein|
w: Blu- men, und|Blu- * * *|* * * * men,|Blu- * * * men _|brin- gen, viel|
!ff! F,/=E,/ F,/E,/ F,/E,/ | F,>D,B,, | !>!F,3 | B, z B, | F,>B,F,/B,/ | F, z!p! F, | F,2 G, | %28
w: fröh- * li- * ches _|Le- ben an-|fan-|gen, an-|fan- * * *|gen, weil|Som- mer-|
w: Früch- * te _ und _|Blu- men magst|brin-|gen, magst|brin- * * *|gen. Du|ed- ler|
 F,2 G, | F,E,D, | C,2!<(! F,!<)! | ^F,2 A, | A,^F,D, |!f! [A,,A,]3 | D, z |!p! D, | E,2 E, | %37
w: zeit nun|ist _ nicht|weit, der|Win- ter|ist _ ver-|gan-|gen,|1.+2.~all'|Feld tun|
w: Lenz mit|dei- * nem|Glanz, wie|Sonn'- schein|her _ tust|drin-|gen,|||
!<(! E,D,C,!<)! | B,,3- | B,,!>(!B,,D,!>)! |!p! G,2 D, | G,2 D, | F,3 | G, G,!<(!F,!<)! | E,2 E, | %45
w: jetz- * und|grü-|* nen, der|Lenz bringt|schö- ne|Blu-|men! All' _|Feld tun|
w: ||||||||
 EDC |!f! (B,_A,G, | F,E,G, |!>(! C,2!>)! D,) | E,2!p! E, | E,2 E, | D,>C,B,, | F,3 | B, z | %54
w: jetz- * und|grü- * *|||nen, der|Lenz bringt|schö- * ne|Blu-|men!|
w: |||||||||
!p! F, | B,2 F, | B,2 F, |!pp! B,3- | B,3- | B,3- | B,3 | !fermata!B,3 |] %62
w: Der|Lenz bringt|schö- ne|Blu-||||men!|
w: ||||||||

